X:1
T: Jean's Reel
C:
R:Reel
Q: 232
K:D
M:4/4
L:1/8
A,2|D2 DE FD FA|dF F2 BF AF|ED EF ED B,2|EG FE DC B,A,|
D2 DE FD FA|de fd ed Bd|A2 FA dB AF|ED CE D2 FA|
dF Bd FB dF|Ad FA dF Ad|cA Ae cA eA|dc de fA de|
fd ec dc BA|Bc dc BA FA|B2 AF dB AF|ED CE D2 DE|
FA, A,F A,A, FA,|DF A,D FA, DF|CA, A,E CA, EA,|AA, ^GA =GE CE|
FA, A,F A,A, FA,|DF A,D FA, DF|CA, CE AA, ^GA|GE CE D2 FA|
dF Bd FB dF|Ad FA dF Ad|cA Ae cA eA|dc de fA de|
fd ec dc BA|Bc dc BA FA|B2 AF dB AF|ED CE D2||

